X:59
C:Page 30
T:Newcastle Hornpipe. MBe.59
S:Matthew Betham MS, Towcett Cumbria, 1815
O:England;Cumbria;Towcett
Z:VMP – Hugh Taylor, 2012
T:Kirkgate Hornpipe,aka. MBe.59
M:C
L:1/8
Q:1/2=100
R:.Hornpipe
N:Misses the modulation into D of most versions.
K:D
d’a|f2 f2 fgdc|d2 d2 defg|afaf bagf|fede dcBA|
f2 f2 fagb|a2 a2 ac’d’a|gfed cdBG|A2 A2 A2:|
|:ce|g2 g2 g2 ce|gfed dcBA|FAdf bc’d’b|aege dcBA|
b2 b2 bc’d’b|afd’a fadf|egbg face|d2 dd d2:|

